X:76
T:Why Are My Eyes. HA.075
M:3/4
L:1/8
Q:3/4=60
S:Henry Atkinson’s original MS,Hartburn,N’umberland,1694.
R:.Air
O:England
A:Hartburn,Northumberland
N:Pills To Purge Melancholy, 1719
H:1/8
Z:vmp.Chris Partington.Jan.2004
K:Bb
“_No Key Sig in MS”c2d2f2|d4B2|(c>Bc>d) d>c|B4B2|
c2(cB) (cG)|(A2B2)c2|(d2c2)(c/d/e)|c6:|
|e2f2g2|g2(fe)(dc)|e2(fe)(dc)|d6|
g2(a2g2)|f2e>dc>d|d3cd2|e6|
A2B2c2|(f2d2)c2|e2(fe) (dc)|B6|
c2d2e2|(c3B) (AB)|B3AB2|c6|]

